; generated by Slic3r 0.7.2-dev on 2012-03-28 at 15:38:52

; layer_height = 0.3
; perimeters = 2
; solid_layers = 4
; fill_density = 0.3
; nozzle_diameter = 0.5
; filament_diameter = 2.91
; extrusion_multiplier = 0.9
; perimeter_speed = 40
; infill_speed = 160
; travel_speed = 160
; extrusion_width_ratio = 
; scale = 1
; single wall width = 0.70mm

M104 S237 ; set temperature
M104 S0
M140 S115
G28
G92 E0
M190 S90
M140 S115
M109 S237 ; wait for temperature to be reached
G90 ; use absolute coordinates
G21 ; set units to millimeters
G92 E0 ; reset extrusion distance
M82 ; use absolute distances for extrusion
M107
G1 Z1.000 F9600.000
G1 X71.490 Y67.150
G1 F1800.000 E1.00000
G1 X71.640 Y66.970 F1920.000 E1.00623
G1 X71.800 Y66.800 E1.01243
G1 X71.970 Y66.640 E1.01863
G1 X72.330 Y66.350 E1.03091
G1 X72.710 Y66.090 E1.04315
G1 X73.110 Y65.860 E1.05541
G1 X73.530 Y65.680 E1.06755
G1 X73.970 Y65.530 E1.07990
G1 X74.200 Y65.470 E1.08622
G1 X74.880 Y65.360 E1.10452
G1 X75.340 Y65.340 E1.11675
G1 X125.110 Y65.360 E2.43916
G1 X125.790 Y65.470 E2.45746
G1 X126.020 Y65.530 E2.46378
G1 X126.460 Y65.680 E2.47613
G1 X126.880 Y65.860 E2.48827
G1 X127.280 Y66.090 E2.50053
G1 X127.660 Y66.350 E2.51276
G1 X128.020 Y66.640 E2.52504
G1 X128.190 Y66.800 E2.53125
G1 X128.350 Y66.970 E2.53745
G1 X128.640 Y67.330 E2.54973
G1 X128.900 Y67.710 E2.56197
G1 X129.130 Y68.110 E2.57423
G1 X129.310 Y68.530 E2.58637
G1 X129.460 Y68.970 E2.59872
G1 X129.520 Y69.200 E2.60504
G1 X129.630 Y69.880 E2.62334
G1 X129.630 Y120.110 E3.95796
G1 X129.520 Y120.790 E3.97627
G1 X129.460 Y121.020 E3.98258
G1 X129.310 Y121.460 E3.99493
G1 X129.130 Y121.880 E4.00708
G1 X128.900 Y122.280 E4.01934
G1 X128.640 Y122.660 E4.03157
G1 X128.350 Y123.020 E4.04385
G1 X128.190 Y123.190 E4.05006
G1 X128.020 Y123.350 E4.05626
G1 X127.660 Y123.640 E4.06854
G1 X127.280 Y123.900 E4.08078
G1 X126.880 Y124.130 E4.09304
G1 X126.460 Y124.310 E4.10518
G1 X126.020 Y124.460 E4.11753
G1 X125.790 Y124.520 E4.12384
G1 X125.110 Y124.630 E4.14215
G1 X124.650 Y124.650 E4.15438
G1 X74.880 Y124.630 E5.47678
G1 X74.200 Y124.520 E5.49509
G1 X73.970 Y124.460 E5.50140
G1 X73.530 Y124.310 E5.51375
G1 X73.110 Y124.130 E5.52590
G1 X72.710 Y123.900 E5.53816
G1 X72.330 Y123.640 E5.55039
G1 X71.970 Y123.350 E5.56267
G1 X71.800 Y123.190 E5.56887
G1 X71.640 Y123.020 E5.57508
G1 X71.350 Y122.660 E5.58736
G1 X71.090 Y122.280 E5.59959
G1 X70.860 Y121.880 E5.61185
G1 X70.680 Y121.460 E5.62400
G1 X70.530 Y121.020 E5.63635
G1 X70.470 Y120.790 E5.64266
G1 X70.360 Y120.110 E5.66097
G1 X70.360 Y69.880 E6.99559
G1 X70.470 Y69.200 E7.01389
G1 X70.530 Y68.970 E7.02021
G1 X70.680 Y68.530 E7.03256
G1 X70.860 Y68.110 E7.04470
G1 X71.090 Y67.710 E7.05696
G1 X71.350 Y67.330 E7.06920
G1 X71.426 Y67.232 E7.07248
G1 F1800.000 E6.07248
G92 E0
G1 X85.611 Y80.611 F9600.000
G1 F1800.000 E1.00000
G1 X86.388 Y79.875 F1920.000 E1.02843
G1 X88.039 Y78.537 E1.08490
G1 X89.822 Y77.380 E1.14137
G1 X90.766 Y76.867 E1.16992
G1 X92.708 Y76.003 E1.22639
G1 X94.733 Y75.345 E1.28299
G1 X96.817 Y74.902 E1.33958
G1 X98.930 Y74.680 E1.39605
G1 X100.000 Y74.652 E1.42448
G1 X101.070 Y74.680 E1.45291
G1 X103.183 Y74.902 E1.50938
G1 X105.267 Y75.345 E1.56597
G1 X107.288 Y76.001 E1.62244
G1 X108.281 Y76.412 E1.65099
G1 X110.174 Y77.377 E1.70746
G1 X111.961 Y78.537 E1.76406
G1 X113.612 Y79.875 E1.82053
G1 X114.389 Y80.611 E1.84896
G1 X115.125 Y81.388 E1.87738
G1 X116.463 Y83.039 E1.93386
G1 X117.620 Y84.822 E1.99033
G1 X118.133 Y85.766 E2.01888
G1 X118.997 Y87.708 E2.07535
G1 X119.655 Y89.733 E2.13194
G1 X120.098 Y91.817 E2.18853
G1 X120.321 Y93.935 E2.24513
G1 X120.321 Y96.065 E2.30172
G1 X120.098 Y98.183 E2.35832
G1 X119.655 Y100.267 E2.41491
G1 X118.999 Y102.288 E2.47138
G1 X118.588 Y103.281 E2.49993
G1 X117.623 Y105.174 E2.55640
G1 X116.463 Y106.961 E2.61299
G1 X115.125 Y108.612 E2.66947
G1 X114.389 Y109.389 E2.69789
G1 X113.612 Y110.125 E2.72632
G1 X111.961 Y111.463 E2.78279
G1 X110.178 Y112.620 E2.83927
G1 X109.234 Y113.133 E2.86781
G1 X107.292 Y113.997 E2.92429
G1 X105.267 Y114.655 E2.98088
G1 X103.183 Y115.098 E3.03747
G1 X101.070 Y115.320 E3.09394
G1 X100.000 Y115.348 E3.12237
G1 X98.930 Y115.320 E3.15080
G1 X96.817 Y115.098 E3.20727
G1 X94.733 Y114.655 E3.26386
G1 X92.712 Y113.999 E3.32034
G1 X91.719 Y113.588 E3.34889
G1 X89.826 Y112.623 E3.40536
G1 X88.039 Y111.463 E3.46195
G1 X86.388 Y110.125 E3.51842
G1 X85.611 Y109.389 E3.54685
G1 X84.875 Y108.612 E3.57528
G1 X83.537 Y106.961 E3.63175
G1 X82.380 Y105.178 E3.68822
G1 X81.867 Y104.234 E3.71677
G1 X81.003 Y102.292 E3.77324
G1 X80.345 Y100.267 E3.82984
G1 X79.902 Y98.183 E3.88643
G1 X79.679 Y96.065 E3.94302
G1 X79.679 Y93.935 E3.99962
G1 X79.902 Y91.817 E4.05621
G1 X80.345 Y89.733 E4.11280
G1 X81.001 Y87.712 E4.16927
G1 X81.412 Y86.719 E4.19782
G1 X82.377 Y84.826 E4.25430
G1 X83.537 Y83.039 E4.31089
G1 X84.875 Y81.388 E4.36736
G1 X85.540 Y80.687 E4.39301
G1 X85.173 Y80.173 F9600.000
G1 X85.979 Y79.409 F1920.000 E4.42252
G1 X87.675 Y78.036 E4.48050
G1 X89.505 Y76.847 E4.53848
G1 X90.492 Y76.311 E4.56832
G1 X92.485 Y75.424 E4.62630
G1 X94.573 Y74.745 E4.68462
G1 X96.720 Y74.289 E4.74294
G1 X98.890 Y74.061 E4.80092
G1 X100.000 Y74.032 E4.83043
G1 X101.110 Y74.061 E4.85993
G1 X103.280 Y74.289 E4.91791
G1 X105.427 Y74.745 E4.97623
G1 X107.503 Y75.420 E5.03421
G1 X108.540 Y75.849 E5.06405
G1 X110.485 Y76.840 E5.12204
G1 X112.325 Y78.036 E5.18035
G1 X114.021 Y79.409 E5.23834
G1 X114.827 Y80.173 E5.26784
G1 X115.591 Y80.979 E5.29735
G1 X116.964 Y82.675 E5.35533
G1 X118.153 Y84.505 E5.41331
G1 X118.689 Y85.492 E5.44315
G1 X119.576 Y87.485 E5.50113
G1 X120.255 Y89.573 E5.55945
G1 X120.711 Y91.720 E5.61777
G1 X120.940 Y93.903 E5.67609
G1 X120.940 Y96.097 E5.73441
G1 X120.711 Y98.280 E5.79272
G1 X120.255 Y100.427 E5.85104
G1 X119.580 Y102.503 E5.90902
G1 X119.151 Y103.540 E5.93887
G1 X118.160 Y105.485 E5.99685
G1 X116.964 Y107.325 E6.05517
G1 X115.591 Y109.021 E6.11315
G1 X114.827 Y109.827 E6.14265
G1 X114.021 Y110.591 E6.17216
G1 X112.325 Y111.964 E6.23014
G1 X110.495 Y113.153 E6.28812
G1 X109.508 Y113.689 E6.31796
G1 X107.515 Y114.576 E6.37594
G1 X105.427 Y115.255 E6.43426
G1 X103.280 Y115.711 E6.49258
G1 X101.110 Y115.939 E6.55056
G1 X100.000 Y115.968 E6.58007
G1 X98.890 Y115.939 E6.60957
G1 X96.720 Y115.711 E6.66755
G1 X94.573 Y115.255 E6.72587
G1 X92.497 Y114.580 E6.78385
G1 X91.460 Y114.151 E6.81369
G1 X89.515 Y113.160 E6.87168
G1 X87.675 Y111.964 E6.92999
G1 X85.979 Y110.591 E6.98798
G1 X85.173 Y109.827 E7.01748
G1 X84.409 Y109.021 E7.04699
G1 X83.036 Y107.325 E7.10497
G1 X81.847 Y105.495 E7.16295
G1 X81.311 Y104.508 E7.19279
G1 X80.424 Y102.515 E7.25077
G1 X79.745 Y100.427 E7.30909
G1 X79.289 Y98.280 E7.36741
G1 X79.060 Y96.097 E7.42573
G1 X79.060 Y93.903 E7.48405
G1 X79.289 Y91.720 E7.54237
G1 X79.745 Y89.573 E7.60068
G1 X80.420 Y87.497 E7.65867
G1 X80.849 Y86.460 E7.68851
G1 X81.840 Y84.515 E7.74649
G1 X83.036 Y82.675 E7.80481
G1 X84.409 Y80.979 E7.86279
G1 X85.101 Y80.249 E7.88952
G1 F1800.000 E6.88952
G92 E0
G1 X75.968 Y70.968 F9600.000
G1 F1800.000 E1.00000
G1 X124.032 Y70.968 F1920.000 E2.27708
G1 X124.032 Y119.032 E3.55417
G1 X75.968 Y119.032 E4.83125
G1 X75.968 Y71.072 E6.10556
G1 X75.348 Y70.348 F9600.000
G1 X124.652 Y70.348 F1920.000 E7.41557
G1 X124.652 Y119.652 E8.72557
G1 X75.348 Y119.652 E10.03557
G1 X75.348 Y70.453 E11.34280
G1 F1800.000 E10.34280
G92 E0
G1 X84.717 Y80.159 F9600.000
G1 F1800.000 E1.00000
G1 X76.390 Y71.832 F6240.000 E1.31644
G1 X76.832 Y71.390 E1.33321
G1 X85.159 Y79.717 E1.64965
G1 X85.612 Y79.287 F9600.000
G1 X77.714 Y71.390 F6240.000 E1.94975
G1 X78.597 Y71.390 E1.97347
G1 X86.087 Y78.881 E2.25811
G1 X86.575 Y78.486 F9600.000
G1 X79.480 Y71.390 F6240.000 E2.52774
G1 X80.362 Y71.390 E2.55146
G1 X87.063 Y78.091 E2.80608
G1 X87.555 Y77.700 F9600.000
G1 X81.245 Y71.390 F6240.000 E3.04586
G1 X82.128 Y71.390 E3.06958
G1 X88.090 Y77.352 E3.29614
G1 X88.625 Y77.005 F9600.000
G1 X83.011 Y71.390 F6240.000 E3.50950
G1 X83.893 Y71.390 E3.53322
G1 X89.160 Y76.657 E3.73337
G1 X89.717 Y76.331 F9600.000
G1 X84.776 Y71.390 F6240.000 E3.92113
G1 X85.659 Y71.390 E3.94485
G1 X90.289 Y76.020 E4.12081
G1 X90.891 Y75.740 F9600.000
G1 X86.541 Y71.390 F6240.000 E4.28611
G1 X87.424 Y71.390 E4.30983
G1 X91.502 Y75.468 E4.46479
G1 X92.113 Y75.196 F9600.000
G1 X88.307 Y71.390 F6240.000 E4.60942
G1 X89.190 Y71.390 E4.63314
G1 X92.748 Y74.948 E4.76835
G1 X93.414 Y74.732 F9600.000
G1 X90.072 Y71.390 F6240.000 E4.89533
G1 X90.955 Y71.390 E4.91905
G1 X94.080 Y74.515 E5.03780
G1 X94.759 Y74.311 F9600.000
G1 X91.838 Y71.390 F6240.000 E5.14881
G1 X92.721 Y71.390 E5.17253
G1 X95.487 Y74.157 E5.27766
G1 X96.215 Y74.002 F9600.000
G1 X93.603 Y71.390 F6240.000 E5.37691
G1 X94.486 Y71.390 E5.40063
G1 X96.955 Y73.859 E5.49445
G1 X97.754 Y73.775 F9600.000
G1 X95.369 Y71.390 F6240.000 E5.58509
G1 X96.251 Y71.390 E5.60881
G1 X98.552 Y73.691 E5.69625
G1 X99.375 Y73.631 F9600.000
G1 X97.134 Y71.390 F6240.000 E5.78139
G1 X98.017 Y71.390 E5.80511
G1 X100.237 Y73.610 E5.88948
G1 X101.143 Y73.634 E5.91384
G1 X98.900 Y71.390 E5.99911
G1 X99.782 Y71.390 E6.02283
G1 X102.112 Y73.720 E6.11135
G1 X103.098 Y73.823 E6.13801
G1 X100.665 Y71.390 E6.23047
G1 X101.548 Y71.390 E6.25419
G1 X104.154 Y73.997 E6.35323
G1 X105.275 Y74.235 E6.38403
G1 X102.430 Y71.390 E6.49213
G1 X103.313 Y71.390 E6.51585
G1 X106.498 Y74.575 E6.63687
G1 X107.805 Y75.000 E6.67382
G1 X104.196 Y71.390 E6.81099
G1 X105.079 Y71.390 E6.83471
G1 X109.354 Y75.665 E6.99717
G1 X111.218 Y76.647 E7.05379
G1 X105.961 Y71.390 E7.25355
G1 X106.844 Y71.390 E7.27727
G1 X114.452 Y78.998 E7.56637
G1 X116.002 Y80.548 F9600.000
G1 X123.610 Y88.156 F6240.000 E7.85547
G1 X123.610 Y87.273 F9600.000
G1 X107.727 Y71.390 F6240.000 E8.45904
G1 X108.609 Y71.390 E8.48276
G1 X123.610 Y86.391 E9.05279
G1 X123.610 Y85.508 E9.07651
G1 X109.492 Y71.390 E9.61300
G1 X110.375 Y71.390 E9.63672
G1 X123.610 Y84.625 E10.13966
G1 X123.610 Y83.742 E10.16338
G1 X111.258 Y71.390 E10.63277
G1 X112.140 Y71.390 E10.65649
G1 X123.610 Y82.860 E11.09234
G1 X123.610 Y81.977 E11.11606
G1 X113.023 Y71.390 E11.51837
G1 X113.906 Y71.390 E11.54209
G1 X123.610 Y81.094 E11.91085
G1 X123.610 Y80.212 E11.93457
G1 X114.788 Y71.390 E12.26979
G1 X115.671 Y71.390 E12.29351
G1 X123.610 Y79.329 E12.59519
G1 X123.610 Y78.446 E12.61890
G1 X116.554 Y71.390 E12.88704
G1 X117.437 Y71.390 E12.91075
G1 X123.610 Y77.563 E13.14534
G1 X123.610 Y76.681 E13.16906
G1 X118.319 Y71.390 E13.37010
G1 X119.202 Y71.390 E13.39382
G1 X123.610 Y75.798 E13.56132
G1 X123.610 Y74.915 E13.58504
G1 X120.085 Y71.390 E13.71899
G1 X120.968 Y71.390 E13.74271
G1 X123.610 Y74.032 E13.84312
G1 X123.610 Y73.150 E13.86684
G1 X121.850 Y71.390 E13.93371
G1 X122.733 Y71.390 E13.95742
G1 X123.610 Y72.267 E13.99075
G1 F1800.000 E12.99075
G92 E0
G1 X118.353 Y83.782 F9600.000
G1 F1800.000 E1.00000
G1 X123.610 Y89.039 F6240.000 E1.19977
G1 X123.610 Y89.921 F9600.000
G1 X119.320 Y85.631 F6240.000 E1.36280
G1 X120.000 Y87.195 F9600.000
G1 X123.610 Y90.804 F6240.000 E1.49996
G1 X123.610 Y91.687 F9600.000
G1 X120.425 Y88.502 F6240.000 E1.62099
G1 X120.765 Y89.725 F9600.000
G1 X123.610 Y92.570 F6240.000 E1.72909
G1 X123.610 Y93.452 F9600.000
G1 X121.003 Y90.846 F6240.000 E1.82814
G1 X121.177 Y91.902 F9600.000
G1 X123.610 Y94.335 F6240.000 E1.92060
G1 X123.610 Y95.218 F9600.000
G1 X121.280 Y92.888 F6240.000 E2.00912
G1 X121.363 Y93.853 F9600.000
G1 X123.610 Y96.100 F6240.000 E2.09451
G1 X123.610 Y96.983 F9600.000
G1 X121.363 Y94.736 F6240.000 E2.17990
G1 X121.363 Y95.619 F9600.000
G1 X123.610 Y97.866 F6240.000 E2.26529
G1 X123.610 Y98.749 F9600.000
G1 X121.309 Y96.448 F6240.000 E2.35273
G1 X121.225 Y97.246 F9600.000
G1 X123.610 Y99.631 F6240.000 E2.44337
G1 X123.610 Y100.514 F9600.000
G1 X121.141 Y98.045 F6240.000 E2.53719
G1 X120.998 Y98.785 F9600.000
G1 X123.610 Y101.397 F6240.000 E2.63644
G1 X123.610 Y102.279 F9600.000
G1 X120.843 Y99.513 F6240.000 E2.74157
G1 X120.689 Y100.241 F9600.000
G1 X123.610 Y103.162 F6240.000 E2.85258
G1 X123.610 Y104.045 F9600.000
G1 X120.485 Y100.920 F6240.000 E2.97133
G1 X120.268 Y101.586 F9600.000
G1 X123.610 Y104.928 F6240.000 E3.09831
G1 X123.610 Y105.810 F9600.000
G1 X120.052 Y102.252 F6240.000 E3.23352
G1 X119.810 Y102.893 F9600.000
G1 X123.610 Y106.693 F6240.000 E3.37791
G1 X123.610 Y107.576 F9600.000
G1 X119.552 Y103.518 F6240.000 E3.53212
G1 X119.259 Y104.108 F9600.000
G1 X123.610 Y108.459 F6240.000 E3.69745
G1 X123.610 Y109.341 F9600.000
G1 X118.961 Y104.693 F6240.000 E3.87411
G1 X118.663 Y105.277 F9600.000
G1 X123.610 Y110.224 F6240.000 E4.06209
G1 X123.610 Y111.107 F9600.000
G1 X118.343 Y105.840 F6240.000 E4.26224
G1 X117.995 Y106.375 F9600.000
G1 X123.610 Y111.989 F6240.000 E4.47560
G1 X123.610 Y112.872 F9600.000
G1 X117.648 Y106.910 F6240.000 E4.70216
G1 X117.300 Y107.445 F9600.000
G1 X123.610 Y113.755 F6240.000 E4.94194
G1 X123.610 Y114.638 F9600.000
G1 X116.909 Y107.937 F6240.000 E5.19656
G1 X116.514 Y108.425 F9600.000
G1 X123.610 Y115.520 F6240.000 E5.46619
G1 X123.610 Y116.403 F9600.000
G1 X116.119 Y108.913 F6240.000 E5.75083
G1 X115.713 Y109.388 F9600.000
G1 X123.610 Y117.286 F6240.000 E6.05094
G1 X123.610 Y118.168 F9600.000
G1 X115.283 Y109.841 F6240.000 E6.36737
G1 X114.841 Y110.283 F9600.000
G1 X123.168 Y118.610 F6240.000 E6.68381
G1 X122.286 Y118.610 F9600.000
G1 X114.388 Y110.713 F6240.000 E6.98391
G1 X113.913 Y111.119 F9600.000
G1 X121.403 Y118.610 F6240.000 E7.26856
G1 X120.520 Y118.610 F9600.000
G1 X113.425 Y111.514 F6240.000 E7.53819
G1 X112.937 Y111.909 F9600.000
G1 X119.638 Y118.610 F6240.000 E7.79281
G1 X118.755 Y118.610 F9600.000
G1 X112.445 Y112.300 F6240.000 E8.03258
G1 X111.910 Y112.648 F9600.000
G1 X117.872 Y118.610 F6240.000 E8.25915
G1 X116.989 Y118.610 F9600.000
G1 X111.375 Y112.995 F6240.000 E8.47251
G1 X110.840 Y113.343 F9600.000
G1 X116.107 Y118.610 F6240.000 E8.67266
G1 X115.224 Y118.610 F9600.000
G1 X110.283 Y113.669 F6240.000 E8.86042
G1 X109.711 Y113.980 F9600.000
G1 X114.341 Y118.610 F6240.000 E9.03637
G1 X113.459 Y118.610 F9600.000
G1 X109.109 Y114.260 F6240.000 E9.20167
G1 X108.498 Y114.532 F9600.000
G1 X112.576 Y118.610 F6240.000 E9.35664
G1 X111.693 Y118.610 F9600.000
G1 X107.887 Y114.804 F6240.000 E9.50127
G1 X107.252 Y115.052 F9600.000
G1 X110.810 Y118.610 F6240.000 E9.63647
G1 X109.928 Y118.610 F9600.000
G1 X106.586 Y115.268 F6240.000 E9.76345
G1 X105.920 Y115.485 F9600.000
G1 X109.045 Y118.610 F6240.000 E9.88221
G1 X108.162 Y118.610 F9600.000
G1 X105.241 Y115.689 F6240.000 E9.99322
G1 X104.513 Y115.843 F9600.000
G1 X107.279 Y118.610 F6240.000 E10.09835
G1 X106.397 Y118.610 F9600.000
G1 X103.785 Y115.998 F6240.000 E10.19760
G1 X103.045 Y116.141 F9600.000
G1 X105.514 Y118.610 F6240.000 E10.29142
G1 X104.631 Y118.610 F9600.000
G1 X102.246 Y116.225 F6240.000 E10.38206
G1 X101.448 Y116.309 F9600.000
G1 X103.749 Y118.610 F6240.000 E10.46950
G1 X102.866 Y118.610 F9600.000
G1 X100.625 Y116.369 F6240.000 E10.55464
G1 X99.763 Y116.390 F9600.000
G1 X101.983 Y118.610 F6240.000 E10.63901
G1 X101.100 Y118.610 F9600.000
G1 X98.857 Y116.366 F6240.000 E10.72428
G1 X97.888 Y116.280 F9600.000
G1 X100.218 Y118.610 F6240.000 E10.81280
G1 X99.335 Y118.610 F9600.000
G1 X96.902 Y116.177 F6240.000 E10.90526
G1 X95.846 Y116.003 F9600.000
G1 X98.452 Y118.610 F6240.000 E11.00431
G1 X97.570 Y118.610 F9600.000
G1 X94.725 Y115.765 F6240.000 E11.11241
G1 X93.502 Y115.425 F9600.000
G1 X96.687 Y118.610 F6240.000 E11.23344
G1 X95.804 Y118.610 F9600.000
G1 X92.195 Y115.000 F6240.000 E11.37061
G1 X90.646 Y114.335 F9600.000
G1 X94.921 Y118.610 F6240.000 E11.53307
G1 X94.039 Y118.610 F9600.000
G1 X88.782 Y113.353 F6240.000 E11.73284
G1 X85.548 Y111.002 F9600.000
G1 X93.156 Y118.610 F6240.000 E12.02194
G1 X92.273 Y118.610 E12.04566
G1 X76.390 Y102.727 E12.64923
G1 X76.390 Y103.609 E12.67295
G1 X91.391 Y118.610 E13.24298
G1 X90.508 Y118.610 E13.26670
G1 X76.390 Y104.492 E13.80318
G1 X76.390 Y105.375 E13.82690
G1 X89.625 Y118.610 E14.32984
G1 X88.742 Y118.610 E14.35356
G1 X76.390 Y106.258 E14.82296
G1 X76.390 Y107.140 E14.84668
G1 X87.860 Y118.610 E15.28253
G1 X86.977 Y118.610 E15.30625
