; generated by Slic3r on 2011-11-12 at 12:00:30

; most important settings used:
; layer_height = 0.14
; perimeters = 2
; fill_density = 0.3
; nozzle_diameter = 0.25
; filament_diameter = 2.8
; perimeter_speed = 45
; infill_speed = 100
; travel_speed = 130
; extrusion_width_ratio = 0

M104 S220 ; set temperature
M104 S0
M140 S105
M92 E335
G91
G1 Z3 F300
G90
G28 X
G28 Y
G1 Y100 F6000
G28 Z
G1 Z1 F400
M190 S90
M140 S105

M109 S220 ; wait for temperature to be reached
G90 ; use absolute coordinates
G21 ; set units to millimeters
G92 E0 ; reset extrusion distance
M82 ; use absolute distances for extrusion
G1 Z0.290 F7800.000 ; move to next layer
G1 X60.840 Y63.020 ; move to first skirt point
G1 F1920.000 E1.00000 ; compensate retraction
G1 X61.020 Y62.840 F2160.000 E1.00203 ; skirt
G1 X61.400 Y62.500 E1.00609 ; skirt
G1 X62.020 Y62.060 E1.01216 ; skirt
G1 X62.240 Y61.930 E1.01419 ; skirt
G1 X62.700 Y61.700 E1.01829 ; skirt
G1 X63.170 Y61.510 E1.02233 ; skirt
G1 X63.660 Y61.360 E1.02642 ; skirt
G1 X63.910 Y61.300 E1.02847 ; skirt
G1 X64.660 Y61.190 E1.03451 ; skirt
G1 X135.330 Y61.190 E1.59789 ; skirt
G1 X136.080 Y61.300 E1.60393 ; skirt
G1 X136.580 Y61.430 E1.60805 ; skirt
G1 X137.060 Y61.600 E1.61211 ; skirt
G1 X137.520 Y61.810 E1.61614 ; skirt
G1 X137.750 Y61.930 E1.61821 ; skirt
G1 X137.970 Y62.060 E1.62025 ; skirt
G1 X138.590 Y62.500 E1.62631 ; skirt
G1 X138.970 Y62.840 E1.63037 ; skirt
G1 X139.150 Y63.020 E1.63240 ; skirt
G1 X139.490 Y63.400 E1.63647 ; skirt
G1 X139.930 Y64.020 E1.64253 ; skirt
G1 X140.060 Y64.240 E1.64456 ; skirt
G1 X140.290 Y64.700 E1.64866 ; skirt
G1 X140.480 Y65.170 E1.65270 ; skirt
G1 X140.630 Y65.660 E1.65679 ; skirt
G1 X140.690 Y65.910 E1.65884 ; skirt
G1 X140.800 Y66.660 E1.66488 ; skirt
G1 X140.800 Y133.330 E2.19637 ; skirt
G1 X140.690 Y134.080 E2.20241 ; skirt
G1 X140.560 Y134.580 E2.20653 ; skirt
G1 X140.390 Y135.060 E2.21059 ; skirt
G1 X140.180 Y135.520 E2.21462 ; skirt
G1 X140.060 Y135.750 E2.21669 ; skirt
G1 X139.930 Y135.970 E2.21873 ; skirt
G1 X139.490 Y136.590 E2.22479 ; skirt
G1 X139.150 Y136.970 E2.22885 ; skirt
G1 X138.970 Y137.150 E2.23088 ; skirt
G1 X138.590 Y137.490 E2.23495 ; skirt
G1 X137.970 Y137.930 E2.24101 ; skirt
G1 X137.750 Y138.060 E2.24305 ; skirt
G1 X137.290 Y138.290 E2.24715 ; skirt
G1 X136.820 Y138.480 E2.25119 ; skirt
G1 X136.330 Y138.630 E2.25527 ; skirt
G1 X136.080 Y138.690 E2.25732 ; skirt
G1 X135.330 Y138.800 E2.26337 ; skirt
G1 X65.170 Y138.820 E2.82268 ; skirt
G1 X64.660 Y138.800 E2.82675 ; skirt
G1 X63.910 Y138.690 E2.83279 ; skirt
G1 X63.410 Y138.560 E2.83691 ; skirt
G1 X62.930 Y138.390 E2.84097 ; skirt
G1 X62.470 Y138.180 E2.84500 ; skirt
G1 X62.240 Y138.060 E2.84707 ; skirt
G1 X62.020 Y137.930 E2.84910 ; skirt
G1 X61.400 Y137.490 E2.85516 ; skirt
G1 X61.020 Y137.150 E2.85923 ; skirt
G1 X60.840 Y136.970 E2.86126 ; skirt
G1 X60.500 Y136.590 E2.86532 ; skirt
G1 X60.060 Y135.970 E2.87138 ; skirt
G1 X59.930 Y135.750 E2.87342 ; skirt
G1 X59.700 Y135.290 E2.87752 ; skirt
G1 X59.510 Y134.820 E2.88156 ; skirt
G1 X59.360 Y134.330 E2.88565 ; skirt
G1 X59.300 Y134.080 E2.88770 ; skirt
G1 X59.190 Y133.330 E2.89374 ; skirt
G1 X59.190 Y66.660 E3.42523 ; skirt
G1 X59.300 Y65.910 E3.43127 ; skirt
G1 X59.430 Y65.410 E3.43539 ; skirt
G1 X59.600 Y64.930 E3.43945 ; skirt
G1 X59.810 Y64.470 E3.44348 ; skirt
G1 X59.930 Y64.240 E3.44555 ; skirt
G1 X60.060 Y64.020 E3.44759 ; skirt
G1 X60.500 Y63.400 E3.45365 ; skirt
G1 X60.606 Y63.281 E3.45492 ; skirt
G1 F1920.000 E2.45492 ; retract
G92 E0
G1 X69.825 Y123.825 F7800.000 ; move to first perimeter point
G1 F1920.000 E1.00000 ; compensate retraction
G1 X69.825 Y124.111 F1440.000 E1.00228 ; perimeter
G1 X68.424 Y125.128 E1.01608 ; perimeter
G1 X67.816 Y127.000 E1.03177 ; perimeter
G1 X68.424 Y128.872 E1.04746 ; perimeter
G1 X69.825 Y129.889 E1.06126 ; perimeter
G1 X69.825 Y130.175 E1.06354 ; perimeter
G1 X77.175 Y130.175 E1.12214 ; perimeter
G1 X77.175 Y129.889 E1.12442 ; perimeter
G1 X78.576 Y128.872 E1.13822 ; perimeter
G1 X79.184 Y127.000 E1.15391 ; perimeter
G1 X78.576 Y125.128 E1.16960 ; perimeter
G1 X77.175 Y124.111 E1.18341 ; perimeter
G1 X77.175 Y123.825 E1.18568 ; perimeter
G1 X70.175 Y123.825 E1.24149 ; perimeter
G1 F1920.000 E0.24149 ; retract
G92 E0
G1 X120.816 Y127.000 F7800.000 ; move to first perimeter point
G1 F1920.000 E1.00000 ; compensate retraction
G1 X121.424 Y128.872 F1440.000 E1.01569 ; perimeter
G1 X122.825 Y129.889 E1.02949 ; perimeter
G1 X122.825 Y130.175 E1.03177 ; perimeter
G1 X130.175 Y130.175 E1.09037 ; perimeter
G1 X130.175 Y129.889 E1.09265 ; perimeter
G1 X131.576 Y128.872 E1.10645 ; perimeter
G1 X132.184 Y127.000 E1.12214 ; perimeter
G1 X131.576 Y125.128 E1.13783 ; perimeter
G1 X130.175 Y124.111 E1.15163 ; perimeter
G1 X130.175 Y123.825 E1.15391 ; perimeter
G1 X122.825 Y123.825 E1.21251 ; perimeter
G1 X122.825 Y124.111 E1.21479 ; perimeter
G1 X121.424 Y125.128 E1.22859 ; perimeter
G1 X120.924 Y126.667 E1.24149 ; perimeter
G1 F1920.000 E0.24149 ; retract
G92 E0
G1 X103.037 Y127.000 F7800.000 ; move to first perimeter point
G1 F1920.000 E1.00000 ; compensate retraction
G1 X102.326 Y125.048 F1440.000 E1.01656 ; perimeter
G1 X100.527 Y124.010 E1.03312 ; perimeter
G1 X98.482 Y124.370 E1.04968 ; perimeter
G1 X97.147 Y125.961 E1.06624 ; perimeter
G1 X97.147 Y128.039 E1.08279 ; perimeter
G1 X98.482 Y129.630 E1.09935 ; perimeter
G1 X100.527 Y129.990 E1.11591 ; perimeter
G1 X102.326 Y128.952 E1.13247 ; perimeter
G1 X102.917 Y127.329 E1.14623 ; perimeter
G1 F1920.000 E0.14623 ; retract
G92 E0
G1 X79.553 Y127.000 F7800.000 ; move to first perimeter point
G1 F1920.000 E1.00000 ; compensate retraction
G1 X78.874 Y124.912 F1440.000 E1.01751 ; perimeter
G1 X77.526 Y123.932 E1.03079 ; perimeter
G1 X77.526 Y123.474 E1.03444 ; perimeter
G1 X69.474 Y123.474 E1.09863 ; perimeter
G1 X69.474 Y123.932 E1.10228 ; perimeter
G1 X68.126 Y124.912 E1.11557 ; perimeter
G1 X67.447 Y127.000 E1.13307 ; perimeter
G1 X68.126 Y129.088 E1.15058 ; perimeter
G1 X69.474 Y130.068 E1.16387 ; perimeter
G1 X69.474 Y130.526 E1.16752 ; perimeter
G1 X77.526 Y130.526 E1.23171 ; perimeter
G1 X77.526 Y130.068 E1.23536 ; perimeter
G1 X78.874 Y129.088 E1.24864 ; perimeter
G1 X79.445 Y127.333 E1.26335 ; perimeter
G1 F1920.000 E0.26335 ; retract
G92 E0
G1 X120.447 Y127.000 F7800.000 ; move to first perimeter point
G1 F1920.000 E1.00000 ; compensate retraction
G1 X121.126 Y129.088 F1440.000 E1.01751 ; perimeter
G1 X122.474 Y130.068 E1.03079 ; perimeter
G1 X122.474 Y130.526 E1.03444 ; perimeter
G1 X130.526 Y130.526 E1.09863 ; perimeter
G1 X130.526 Y130.068 E1.10228 ; perimeter
G1 X131.874 Y129.088 E1.11557 ; perimeter
G1 X132.553 Y127.000 E1.13307 ; perimeter
G1 X131.874 Y124.912 E1.15058 ; perimeter
G1 X130.526 Y123.932 E1.16387 ; perimeter
G1 X130.526 Y123.474 E1.16752 ; perimeter
G1 X122.474 Y123.474 E1.23171 ; perimeter
G1 X122.474 Y123.932 E1.23536 ; perimeter
G1 X121.126 Y124.912 E1.24864 ; perimeter
G1 X120.555 Y126.667 E1.26335 ; perimeter
G1 F1920.000 E0.26335 ; retract
G92 E0
G1 X103.410 Y127.000 F7800.000 ; move to first perimeter point
G1 F1920.000 E1.00000 ; compensate retraction
G1 X102.612 Y124.808 F1440.000 E1.01859 ; perimeter
G1 X100.592 Y123.642 E1.03719 ; perimeter
G1 X98.295 Y124.047 E1.05578 ; perimeter
G1 X96.796 Y125.834 E1.07437 ; perimeter
G1 X96.796 Y128.166 E1.09297 ; perimeter
G1 X98.295 Y129.953 E1.11156 ; perimeter
G1 X100.592 Y130.358 E1.13015 ; perimeter
G1 X102.612 Y129.192 E1.14875 ; perimeter
G1 X103.290 Y127.329 E1.16455 ; perimeter
G1 F1920.000 E0.16455 ; retract
G92 E0
G1 X134.474 Y132.474 F7800.000 ; move to first perimeter point
G1 F1920.000 E1.00000 ; compensate retraction
G1 X65.526 Y132.474 F2160.000 E1.54965 ; perimeter
G1 X65.526 Y121.526 E1.63693 ; perimeter
G1 X134.474 Y121.526 E2.18658 ; perimeter
G1 X134.474 Y132.123 E2.27106 ; perimeter
G1 X134.825 Y132.825 F7800.000 ; move to first perimeter point
G1 X65.175 Y132.825 F2160.000 E2.82630 ; perimeter
G1 X65.175 Y121.175 E2.91917 ; perimeter
G1 X134.825 Y121.175 E3.47441 ; perimeter
G1 X134.825 Y132.474 E3.56448 ; perimeter
G1 F1920.000 E2.56448 ; retract
G92 E0
G1 X78.576 Y110.872 F7800.000 ; move to first perimeter point
G1 F1920.000 E1.00000 ; compensate retraction
G1 X79.184 Y109.000 F1440.000 E1.01569 ; perimeter
G1 X78.576 Y107.128 E1.03138 ; perimeter
G1 X77.175 Y106.111 E1.04518 ; perimeter
G1 X77.175 Y105.825 E1.04746 ; perimeter
G1 X69.825 Y105.825 E1.10606 ; perimeter
G1 X69.825 Y106.111 E1.10834 ; perimeter
G1 X68.424 Y107.128 E1.12214 ; perimeter
G1 X67.816 Y109.000 E1.13783 ; perimeter
G1 X68.424 Y110.872 E1.15352 ; perimeter
G1 X69.825 Y111.889 E1.16732 ; perimeter
G1 X69.825 Y112.175 E1.16960 ; perimeter
G1 X77.175 Y112.175 E1.22820 ; perimeter
G1 X77.175 Y111.889 E1.23048 ; perimeter
G1 X78.293 Y111.078 E1.24149 ; perimeter
G1 F1920.000 E0.24149 ; retract
G92 E0
G1 X120.816 Y109.000 F7800.000 ; move to first perimeter point
G1 F1920.000 E1.00000 ; compensate retraction
G1 X121.424 Y110.872 F1440.000 E1.01569 ; perimeter
G1 X122.825 Y111.889 E1.02949 ; perimeter
G1 X122.825 Y112.175 E1.03177 ; perimeter
G1 X130.175 Y112.175 E1.09037 ; perimeter
G1 X130.175 Y111.889 E1.09265 ; perimeter
G1 X131.576 Y110.872 E1.10645 ; perimeter
G1 X132.184 Y109.000 E1.12214 ; perimeter
G1 X131.576 Y107.128 E1.13783 ; perimeter
G1 X130.175 Y106.111 E1.15163 ; perimeter
G1 X130.175 Y105.825 E1.15391 ; perimeter
G1 X122.825 Y105.825 E1.21251 ; perimeter
G1 X122.825 Y106.111 E1.21479 ; perimeter
G1 X121.424 Y107.128 E1.22859 ; perimeter
G1 X120.924 Y108.667 E1.24149 ; perimeter
G1 F1920.000 E0.24149 ; retract
G92 E0
G1 X103.037 Y109.000 F7800.000 ; move to first perimeter point
G1 F1920.000 E1.00000 ; compensate retraction
G1 X102.326 Y107.048 F1440.000 E1.01656 ; perimeter
G1 X100.527 Y106.010 E1.03312 ; perimeter
G1 X98.482 Y106.370 E1.04968 ; perimeter
G1 X97.147 Y107.961 E1.06624 ; perimeter
G1 X97.147 Y110.039 E1.08279 ; perimeter
G1 X98.482 Y111.630 E1.09935 ; perimeter
G1 X100.527 Y111.990 E1.11591 ; perimeter
G1 X102.326 Y110.952 E1.13247 ; perimeter
G1 X102.917 Y109.329 E1.14623 ; perimeter
G1 F1920.000 E0.14623 ; retract
G92 E0
G1 X79.553 Y109.000 F7800.000 ; move to first perimeter point
G1 F1920.000 E1.00000 ; compensate retraction
G1 X78.874 Y106.912 F1440.000 E1.01751 ; perimeter
G1 X77.526 Y105.932 E1.03079 ; perimeter
G1 X77.526 Y105.474 E1.03444 ; perimeter
G1 X69.474 Y105.474 E1.09863 ; perimeter
G1 X69.474 Y105.932 E1.10228 ; perimeter
G1 X68.126 Y106.912 E1.11557 ; perimeter
G1 X67.447 Y109.000 E1.13307 ; perimeter
G1 X68.126 Y111.088 E1.15058 ; perimeter
G1 X69.474 Y112.068 E1.16387 ; perimeter
G1 X69.474 Y112.526 E1.16752 ; perimeter
G1 X77.526 Y112.526 E1.23171 ; perimeter
G1 X77.526 Y112.068 E1.23536 ; perimeter
G1 X78.874 Y111.088 E1.24864 ; perimeter
G1 X79.445 Y109.333 E1.26335 ; perimeter
G1 F1920.000 E0.26335 ; retract
G92 E0
G1 X120.447 Y109.000 F7800.000 ; move to first perimeter point
G1 F1920.000 E1.00000 ; compensate retraction
G1 X121.126 Y111.088 F1440.000 E1.01751 ; perimeter
G1 X122.474 Y112.068 E1.03079 ; perimeter
G1 X122.474 Y112.526 E1.03444 ; perimeter
G1 X130.526 Y112.526 E1.09863 ; perimeter
G1 X130.526 Y112.068 E1.10228 ; perimeter
G1 X131.874 Y111.088 E1.11557 ; perimeter
G1 X132.553 Y109.000 E1.13307 ; perimeter
G1 X131.874 Y106.912 E1.15058 ; perimeter
G1 X130.526 Y105.932 E1.16387 ; perimeter
G1 X130.526 Y105.474 E1.16752 ; perimeter
G1 X122.474 Y105.474 E1.23171 ; perimeter
G1 X122.474 Y105.932 E1.23536 ; perimeter
G1 X121.126 Y106.912 E1.24864 ; perimeter
G1 X120.555 Y108.667 E1.26335 ; perimeter
G1 F1920.000 E0.26335 ; retract
G92 E0
G1 X103.410 Y109.000 F7800.000 ; move to first perimeter point
G1 F1920.000 E1.00000 ; compensate retraction
G1 X102.612 Y106.808 F1440.000 E1.01859 ; perimeter
G1 X100.592 Y105.642 E1.03719 ; perimeter
G1 X98.295 Y106.047 E1.05578 ; perimeter
G1 X96.796 Y107.834 E1.07437 ; perimeter
G1 X96.796 Y110.166 E1.09297 ; perimeter
G1 X98.295 Y111.953 E1.11156 ; perimeter
G1 X100.592 Y112.358 E1.13015 ; perimeter
G1 X102.612 Y111.192 E1.14875 ; perimeter
G1 X103.290 Y109.329 E1.16455 ; perimeter
G1 F1920.000 E0.16455 ; retract
G92 E0
G1 X134.474 Y114.474 F7800.000 ; move to first perimeter point
G1 F1920.000 E1.00000 ; compensate retraction
G1 X65.526 Y114.474 F2160.000 E1.54965 ; perimeter
G1 X65.526 Y103.526 E1.63693 ; perimeter
G1 X134.474 Y103.526 E2.18658 ; perimeter
G1 X134.474 Y114.123 E2.27106 ; perimeter
G1 X134.825 Y114.825 F7800.000 ; move to first perimeter point
G1 X65.175 Y114.825 F2160.000 E2.82630 ; perimeter
G1 X65.175 Y103.175 E2.91917 ; perimeter
G1 X134.825 Y103.175 E3.47441 ; perimeter
G1 X134.825 Y114.474 E3.56448 ; perimeter
G1 F1920.000 E2.56448 ; retract
G92 E0
G1 X78.576 Y92.872 F7800.000 ; move to first perimeter point
G1 F1920.000 E1.00000 ; compensate retraction
G1 X79.184 Y91.000 F1440.000 E1.01569 ; perimeter
G1 X78.576 Y89.128 E1.03138 ; perimeter
G1 X77.175 Y88.111 E1.04518 ; perimeter
G1 X77.175 Y87.825 E1.04746 ; perimeter
G1 X69.825 Y87.825 E1.10606 ; perimeter
G1 X69.825 Y88.111 E1.10834 ; perimeter
G1 X68.424 Y89.128 E1.12214 ; perimeter
G1 X67.816 Y91.000 E1.13783 ; perimeter
G1 X68.424 Y92.872 E1.15352 ; perimeter
G1 X69.825 Y93.889 E1.16732 ; perimeter
G1 X69.825 Y94.175 E1.16960 ; perimeter
G1 X77.175 Y94.175 E1.22820 ; perimeter
G1 X77.175 Y93.889 E1.23048 ; perimeter
G1 X78.293 Y93.078 E1.24149 ; perimeter
G1 F1920.000 E0.24149 ; retract
G92 E0
G1 X120.816 Y91.000 F7800.000 ; move to first perimeter point
G1 F1920.000 E1.00000 ; compensate retraction
G1 X121.424 Y92.872 F1440.000 E1.01569 ; perimeter
G1 X122.825 Y93.889 E1.02949 ; perimeter
G1 X122.825 Y94.175 E1.03177 ; perimeter
G1 X130.175 Y94.175 E1.09037 ; perimeter
G1 X130.175 Y93.889 E1.09265 ; perimeter
G1 X131.576 Y92.872 E1.10645 ; perimeter
G1 X132.184 Y91.000 E1.12214 ; perimeter
G1 X131.576 Y89.128 E1.13783 ; perimeter
G1 X130.175 Y88.111 E1.15163 ; perimeter
G1 X130.175 Y87.825 E1.15391 ; perimeter
G1 X122.825 Y87.825 E1.21251 ; perimeter
G1 X122.825 Y88.111 E1.21479 ; perimeter
G1 X121.424 Y89.128 E1.22859 ; perimeter
G1 X120.924 Y90.667 E1.24149 ; perimeter
G1 F1920.000 E0.24149 ; retract
G92 E0
G1 X103.037 Y91.000 F7800.000 ; move to first perimeter point
G1 F1920.000 E1.00000 ; compensate retraction
G1 X102.326 Y89.048 F1440.000 E1.01656 ; perimeter
G1 X100.527 Y88.010 E1.03312 ; perimeter
G1 X98.482 Y88.370 E1.04968 ; perimeter
G1 X97.147 Y89.961 E1.06624 ; perimeter
G1 X97.147 Y92.039 E1.08279 ; perimeter
G1 X98.482 Y93.630 E1.09935 ; perimeter
G1 X100.527 Y93.990 E1.11591 ; perimeter
G1 X102.326 Y92.952 E1.13247 ; perimeter
G1 X102.917 Y91.329 E1.14623 ; perimeter
G1 F1920.000 E0.14623 ; retract
G92 E0
G1 X79.553 Y91.000 F7800.000 ; move to first perimeter point
G1 F1920.000 E1.00000 ; compensate retraction
G1 X78.874 Y88.912 F1440.000 E1.01751 ; perimeter
G1 X77.526 Y87.932 E1.03079 ; perimeter
G1 X77.526 Y87.474 E1.03444 ; perimeter
G1 X69.474 Y87.474 E1.09863 ; perimeter
G1 X69.474 Y87.932 E1.10228 ; perimeter
G1 X68.126 Y88.912 E1.11557 ; perimeter
G1 X67.447 Y91.000 E1.13307 ; perimeter
G1 X68.126 Y93.088 E1.15058 ; perimeter
G1 X69.474 Y94.068 E1.16387 ; perimeter
G1 X69.474 Y94.526 E1.16752 ; perimeter
G1 X77.526 Y94.526 E1.23171 ; perimeter
G1 X77.526 Y94.068 E1.23536 ; perimeter
G1 X78.874 Y93.088 E1.24864 ; perimeter
G1 X79.445 Y91.333 E1.26335 ; perimeter
G1 F1920.000 E0.26335 ; retract
G92 E0
G1 X120.447 Y91.000 F7800.000 ; move to first perimeter point
G1 F1920.000 E1.00000 ; compensate retraction
G1 X121.126 Y93.088 F1440.000 E1.01751 ; perimeter
G1 X122.474 Y94.068 E1.03079 ; perimeter
G1 X122.474 Y94.526 E1.03444 ; perimeter
G1 X130.526 Y94.526 E1.09863 ; perimeter
G1 X130.526 Y94.068 E1.10228 ; perimeter
G1 X131.874 Y93.088 E1.11557 ; perimeter
G1 X132.553 Y91.000 E1.13307 ; perimeter
G1 X131.874 Y88.912 E1.15058 ; perimeter
G1 X130.526 Y87.932 E1.16387 ; perimeter
G1 X130.526 Y87.474 E1.16752 ; perimeter
G1 X122.474 Y87.474 E1.23171 ; perimeter
G1 X122.474 Y87.932 E1.23536 ; perimeter
G1 X121.126 Y88.912 E1.24864 ; perimeter
